X: 238
T: Newt Payne's Tune
C:Newt Payne
B: canberra pickers and fiddlers
B: tunes
M:4/4
L:1/8
Q: 1/4=100
K:A
V:1 
"      Play 3 times" "A" e2 e2 e2 cd | "A" e2 e2 edcB |"A" A2 cd e2 f2 |"D" a2 f2 ecBA | 
"      Play 3 times" "A" A,2 E2 C2 E2 |"A" c2 cB- BAFE |"D" D2 FA d2 fa- |"D"aa f2 ecBA |
% abcbook-tune_id 63ae8f1c7ceb7f46d326e73a
% abcbook-tune_composer_id 
% abcbook-link-0 https://www.youtube.com/watch?v=ce6jRfY4K0U
% abcbook-link-title-0 Newt Payne&#39;s Tune
% abcbook-boost 0
% abcbook-difficulty 9
% abcbook-tags canberra pickers and fiddlers,old time tunes,© free
% abcbook-tablature 
% abcbook-transpose 
% abcbook-tuning GDAE
% abcbook-lastupdated 1691445877015
% abcbook-src-url https://tunebook.net/scrape/tunes.abc
% abcbook-soundfonts 
% abcbook-repeats 1


